X: 13707
T: For The Sake Of Old Decency
R: reel
M: 4/4
K: Dmajor
dB|A2 FD EFDF|(3ABA FD EDB,B|A2 FD EFDF|AFED B,DDB|
A2 FD EFDF|(3ABA FD EDB,B|A2 FD EFDF|AFED B,DDC||
D3F (3ABA FA|deed Bdd2|D3F ADFA|BdAF FEEF|
D/D/D DF A2 FA|deed Bdd2|D3F ADFA|ABde fedB||

